src/16/actions/tab-duplicate.svg

<svg xmlns="http://www.w3.org/2000/svg" width="16" height="16"><defs><style id="current-color-scheme" type="text/css"></style></defs><path d="M4 1c-1.108 0-2 .892-2 2v4H1v2h5v4H5v2h10v-2h-1V9c0-1.108-.892-2-2-2h-2V3c0-1.108-.892-2-2-2H4z" fill="currentColor" color="#565656"/></svg>

<svg xmlns="http://www.w3.org/2000/svg" width="16" height="16" viewBox="0 0 16 16">
 <defs>
  <style id="current-color-scheme" type="text/css">
   .ColorScheme-Text { color:#565656; } .ColorScheme-Highlight { color:#5294e2; }
  </style>
 </defs>
 <path style="fill:currentColor" class="ColorScheme-Text" d="M 4 1 C 2.892 1 2 1.892 2 3 L 2 7 L 1 7 L 1 9 L 6 9 L 6 13 L 5 13 L 5 15 L 15 15 L 15 13 L 14 13 L 14 9 C 14 7.892 13.108 7 12 7 L 10 7 L 10 3 C 10 1.892 9.108 1 8 1 L 4 1 z"/>
</svg>
